!! 00000] TT[WS
!!!OTL: Taiping nian
!!!ARE: Asia, China, Shanxi Lishan
!! Ethnic Group: Han
!! WI, 253
!!!SCT: J0300
!!!YEM: Copyright 1995, estate of Helmut Schaffrath.
**kern
*ICvox
*Ivox
!! Mixed meters:  2/4; 3/8
*M1/4
*k[f#]
*G:
{8a
8a
8a
8b
=1
8dd
8gg
8ee
8dd
=2
4dd
8b
8a
=3
4dd
8g
8b
=4
2a}
=5
{16a
8.a
8a
8b
=6
8dd
8gg
8ee
8dd
=7
8b
8dd
8b
8a
=8
4dd
8g
8b
=9
2a}
=10
{4dd
8gg
8ee
=11
8dd
8gg
8ee
8dd
=12
8a
8b
4a
=13
8gg
8b
8.b
16a
=14
16b
16a
4g
8e
=15
2d}
=16
{8.e
16g
8e
8g
=17
4.a
8b
=18
8dd
8b
8.a
16g
=19
8g
8e
4d}
=20
{8g
8b
8a
8dd
=21
8g
8e
8d
8B
=22
4.d
8e
=23
2d}
==
!!!AGN: Xiaodiao, Chundiao. XÅshi, Sichun
!!!ONB: ESAC (Essen Associative Code) Database: CHINA
!!!AMT: irregular
!!!AIN: vox
!!!EED: Helmut Schaffrath
!!!EEV: 1.0
*-
